X:1
T:Title
%%score { ( 1 4 ) | ( 2 3 ) }
L:1/8
Q:1/4=81
M:6/8
K:D
V:1 treble nm="Grand Piano"
V:4 treble 
V:2 bass 
V:3 bass 
V:1
 [DB]2 c d2 c | [DFB]3 [DB]2- [DGB] | d2 d [Gc]BA | B2 [DB] .[B,EF]3 | [=CA]2 B =cBA | .[EG]3 B3 | %6
w: R.~O.~Morris * * *||||||
 .d3 .A3 | .[B,E]2 [G,CE] [F,A,D]3 |] %8
w: ||
V:2
 z2 E[K:treble] F2 E | B,2 A, z AA, | [B,F]2 [B,F][K:bass] [E,C]2 [F,C] | [G,B,D]2 G,,/A,,/ z2 ^D | %4
 z2 D ED=C | z2[K:treble] F G3 | [E,,B,,]3 [F,,D,]3 | z DA,, D,3 |] %8
V:3
 [B,,F,]6[K:treble] | z3 .G,3 | x3[K:bass] x3 | z3 B,,3 | [A,,E,]6 | .[E,,E,]6[K:treble] | x6 | %7
 .[G,,D,]3 z3 |] %8
V:4
 x6 | z3 .G3 | x6 | x6 | x6 | B,2- [B,-A] B,-[D,B,-][C,B,] | [DG]2- [DGB] D2- [DF] | x6 |] %8

